src/img/icons/logout_icon.svg

<svg role="img" viewBox="0 0 25 24" xmlns="http://www.w3.org/2000/svg"><title>Logout icon</title><path d="M5 22.5h9c.3977-.0004.779-.1586 1.0602-.4398s.4394-.6625.4398-1.0602v-2.25H14V21H5V3h9v2.25h1.5V3a1.50162 1.50162 0 00-.4398-1.06022A1.50143 1.50143 0 0014 1.5H5A1.50151 1.50151 0 003.5 3v18c.0004.3977.15856.779.43978 1.0602A1.50162 1.50162 0 005 22.5z"/><path d="M15.9395 15.4395L18.629 12.75H8v-1.5h10.629l-2.6895-2.6895L17 7.5l4.5 4.5-4.5 4.5-1.0605-1.0605z"/></svg>

<svg width="25" height="24" viewBox="0 0 25 24" fill="none" xmlns="http://www.w3.org/2000/svg">
<path d="M5 22.5H14C14.3977 22.4996 14.779 22.3414 15.0602 22.0602C15.3414 21.779 15.4996 21.3977 15.5 21V18.75H14V21H5V3H14V5.25H15.5V3C15.4996 2.6023 15.3414 2.221 15.0602 1.93978C14.779 1.65856 14.3977 1.5004 14 1.5H5C4.6023 1.5004 4.221 1.65856 3.93978 1.93978C3.65856 2.221 3.5004 2.6023 3.5 3V21C3.5004 21.3977 3.65856 21.779 3.93978 22.0602C4.221 22.3414 4.6023 22.4996 5 22.5Z" fill="black"/>
<path d="M15.9395 15.4395L18.629 12.75H8V11.25H18.629L15.9395 8.5605L17 7.5L21.5 12L17 16.5L15.9395 15.4395Z" fill="black"/>
</svg>
